!!!OTL: BRAUNS MAEDCHEN AN DEM LADEN LAG
!!!ARE: Europa, Mitteleuropa, Luxemburg
!!!SCT: E0116A
!!!YEM: Copyright 1995, estate of Helmut Schaffrath.
**kern
*ICvox
*Ivox
*M4/4
*k[f#]
*G:
{4d
=1
4.g
8f#
4g
8a
8b
=2
4.g
8f#
4g}
{4cc
=3
4b
8a
8b
4g
4b
=4
2a
4r}
{8a
8b
=5
4.cc
8b
8a
8b
8cc
8a
=6
4.b
8g
4a
4r}
=7
{4b
8a
8g
8f#
8e
8d
8e
=8
4f#
4cc
8b
8a
8g
8a
=9
2.b}
==
!!!AGN: erzaehlendes Volks - Lied, Schalk -, Schelmen - Lied, Liebe, Ballade ?
!!!ONB: ESAC (Essen Associative Code) Database: ERK1
!!!AMT: simple quadruple
!!!AIN: vox
!!!EED: Helmut Schaffrath
!!!EEV: 1.0
*-
